X:7
T:Allister. JBi.07
M:2/4
L:1/8
Q:1/2=65
S:James Biggins MS, Leeds, 1779.
R:.Misc.
O:England
A:Yorkshire
Z:vmp.Nick Barber & Chris Partington
K:F
â€œ_no key sig. in msâ€G2g2|fdcd|BFFD|F2F2|G2g2|fdcd|BAGF|G2G2:|!
|:G>AB>c|d(c/B/) cd|BFFD|F2F2|G>AB>c|d(c/B/) cd|BGGF|G2G2|!
G>AB>c|d(c/B/) cd|gFFD|F2F2|d(e/f/) gd|gdcd|BGGF|G2G2:|

